Newaita-dark/apps/22/mintbackup.svg

<svg height="22pt" viewBox="0 0 22 22" width="22pt" xmlns="http://www.w3.org/2000/svg" xmlns:xlink="http://www.w3.org/1999/xlink"><linearGradient id="a"><stop offset="0" stop-opacity=".313725"/><stop offset=".222222" stop-opacity=".27451"/><stop offset="1" stop-opacity="0"/></linearGradient><radialGradient id="b" cx="450.90894" cy="189.57936" gradientTransform="matrix(.00000012 -.0537161 -.0966889 -.00000007 30.609667 43.721791)" gradientUnits="userSpaceOnUse" r="21.166656" xlink:href="#a"/><radialGradient id="c" cx="450.90894" cy="189.57936" gradientTransform="matrix(-.00000012 .0537161 .0966889 .00000007 -8.779458 -5.175143)" gradientUnits="userSpaceOnUse" r="21.166656" xlink:href="#a"/><radialGradient id="d" cx="450.90894" cy="189.57936" gradientTransform="matrix(-.00000012 -.0537161 .0966889 -.00000007 -8.779458 43.721791)" gradientUnits="userSpaceOnUse" r="21.166656" xlink:href="#a"/><radialGradient id="e" cx="450.90894" cy="189.57936" gradientTransform="matrix(.00000012 .0537161 -.0966889 .00000007 30.609666 -5.175144)" gradientUnits="userSpaceOnUse" r="21.166656" xlink:href="#a"/><linearGradient id="f" gradientTransform="matrix(.00918504 0 0 .0429729 8.569953 9.239164)" gradientUnits="userSpaceOnUse" x1="255.32306" x2="255.32304" y1="233.5" y2="254.66666"><stop offset="0" stop-opacity=".27451"/><stop offset="1" stop-opacity="0"/></linearGradient><linearGradient id="g" gradientUnits="userSpaceOnUse" x1="254" x2="254" y1="-168.66667" y2="233.5"><stop offset="0" stop-color="#aed581"/><stop offset="1" stop-color="#9ccc65"/></linearGradient><linearGradient id="h" gradientUnits="userSpaceOnUse" x1="10.915104" x2="10.915104" y1="19.27332442218" y2="1.99107551259"><stop offset="0" stop-color="#424242"/><stop offset="1" stop-color="#616161"/></linearGradient><path d="m12.507812 19.273438h1.816407v-.910157h-1.816407zm0 0" fill="url(#b)"/><path d="m9.324219 19.273438h-1.820313v.910156h1.820313zm0 0" fill="url(#c)"/><path d="m9.324219 19.273438h-1.820313v-.910157h1.820313zm0 0" fill="url(#d)"/><path d="m12.507812 19.273438h1.816407v.910156h-1.816407zm0 0" fill="url(#e)"/><path d="m9.324219 19.046875h3.183593v1.136719h-3.183593zm0 0" fill="url(#f)"/><path d="m253.975747-168.640791c111.080301 0 201.071707 89.991407 201.071707 201.071708s-89.991406 201.071708-201.071707 201.071708c-110.989402 0-201.071708-89.991407-201.071708-201.071708s90.082306-201.071708 201.071708-201.071708zm0 0" fill="url(#g)" stroke="#333" stroke-linecap="round" stroke-width="3" transform="matrix(.0429729 0 0 .0429729 0 9.239163)"/><path d="m10.914062 19.273438c-4.785156 0-8.640624-3.855469-8.640624-8.640626 0-.027343 0-.058593 0-.085937.046874 4.75 3.882812 8.558594 8.640624 8.558594 4.761719 0 8.597657-3.808594 8.640626-8.558594v.085937c0 4.785157-3.851563 8.640626-8.640626 8.640626zm0 0" fill-opacity=".196078"/><path d="m10.914062 1.992188c-4.785156 0-8.640624 3.851562-8.640624 8.640624v.085938c.046874-4.75 3.882812-8.558594 8.640624-8.558594 4.761719 0 8.597657 3.808594 8.640626 8.558594 0-.03125 0-.058594 0-.085938 0-4.789062-3.851563-8.640624-8.640626-8.640624zm0 0" fill="#fff" fill-opacity=".392157"/><path d="m10.914062 1.925781c-4.820312 0-8.703124 3.882813-8.703124 8.707031 0 4.820313 3.882812 8.703126 8.703124 8.703126 4.824219 0 8.707032-3.882813 8.707032-8.703126 0-4.824218-3.882813-8.707031-8.707032-8.707031zm0 .128907c4.753907 0 8.578126 3.824218 8.578126 8.578124 0 4.75-3.824219 8.574219-8.578126 8.574219-4.75 0-8.574218-3.824219-8.574218-8.574219 0-4.753906 3.824218-8.578124 8.574218-8.578124zm0 0" fill="#212121"/><path d="m11.132812 3.355469c-.085937 0-.171874.027343-.25.082031l-2.273437 1.59375c-.261719.179688-.261719.5625 0 .742188l2.273437 1.59375c.074219.050781.164063.082031.253907.082031.253906 0 .460937-.203125.460937-.457031v-.886719c2.304688.226562 4.09375 2.160156 4.09375 4.527343 0 1.671876-.894531 3.128907-2.230468 3.917969l.28125.199219c.308593.214844.492187.546875.546874.894531 1.664063-1.042969 2.765626-2.894531 2.765626-5.011719 0-3.125-2.394532-5.664062-5.457032-5.894531v-.929687c0-.261719-.214844-.449219-.445312-.453125-.007813 0-.011719 0-.019532 0zm-3.589843 2.265625c-1.664063 1.042968-2.765625 2.894531-2.765625 5.011718 0 3.121094 2.394531 5.664063 5.457031 5.894532v.925781c0 .367187.414063.585937.714844.375l2.273437-1.59375c.257813-.179687.257813-.5625 0-.746094l-2.273437-1.589843c-.074219-.054688-.164063-.082032-.257813-.082032-.25-.003906-.457031.203125-.457031.453125v.886719c-2.304687-.226562-4.09375-2.15625-4.09375-4.523438 0-1.671874.894531-3.128906 2.230469-3.917968l-.28125-.199219c-.3125-.21875-.492188-.546875-.546875-.894531zm0 0" fill="url(#h)"/><path d="m11.132812 3.355469c-.085937 0-.171874.027343-.25.082031l-2.273437 1.59375c-.164063.113281-.226563.308594-.179687.484375.023437-.101563.085937-.191406.179687-.257813l2.273437-1.59375c.078126-.054687.164063-.078124.25-.082031h.019532c.230468.007813.445312.191407.445312.457031v-.230468c0-.261719-.214844-.449219-.445312-.453125-.007813 0-.011719 0-.019532 0zm.464844 1.382812v.226563c3.023438.226562 5.398438 2.710937 5.457032 5.777344 0-.035157 0-.074219 0-.109376 0-3.125-2.394532-5.664062-5.457032-5.894531zm-4.054687.882813c-1.664063 1.042968-2.765625 2.894531-2.765625 5.011718v.109376c.039062-2.066407 1.132812-3.871094 2.765625-4.894532.054687.347656.234375.679688.546875.894532l.109375.078124c.054687-.035156.113281-.070312.171875-.105468l-.28125-.199219c-.3125-.21875-.492188-.546875-.546875-.894531zm8.144531 5.171875c-.054688 1.605469-.933594 2.992187-2.226562 3.757812l.171874.121094c1.199219-.785156 2.003907-2.117187 2.054688-3.648437v.046874c.003906-.039062.003906-.074218.003906-.113281 0-.054687 0-.109375-.003906-.164062zm-9.542969 0c-.003906.054687-.003906.109375-.003906.164062v.117188c0-.019531 0-.035157.003906-.050781.078125 2.289062 1.835938 4.140624 4.089844 4.363281v-.230469c-2.253906-.21875-4.011719-2.070312-4.089844-4.363281zm4.546875 3.023437c-.25-.003906-.457031.203125-.457031.453125v.230469c0-.253906.207031-.457031.457031-.457031.09375.003906.183594.03125.257813.082031l2.273437 1.59375c.09375.066406.152344.15625.179688.257812.042968-.175781-.015625-.371093-.179688-.488281l-2.273437-1.589843c-.074219-.054688-.164063-.082032-.257813-.082032zm0 0" fill="#fff" fill-opacity=".392157"/><path d="m8.476562 5.605469c-.113281.195312-.070312.460937.132813.601562l2.273437 1.589844c.074219.054687.164063.082031.253907.082031.253906.003906.460937-.199218.460937-.453125v-.453125c0 .25-.207031.457032-.460937.453125-.089844 0-.179688-.03125-.253907-.082031l-2.273437-1.589844c-.058594-.042968-.101563-.089844-.132813-.148437zm3.121094.480469v.453124c2.230469.21875 3.976563 2.035157 4.085938 4.296876.003906-.074219.007812-.148438.007812-.226563 0-2.367187-1.789062-4.296875-4.09375-4.523437zm-3.5625.824218c-1.148437.824219-1.894531 2.171875-1.894531 3.699219 0 .078125 0 .152344.003906.226563.078125-1.574219.949219-2.9375 2.226563-3.691407l-.28125-.195312c-.019532-.011719-.035156-.027344-.054688-.039063zm9.015625 3.925782c-.074219 2.023437-1.15625 3.78125-2.761719 4.785156-.050781-.328125-.214843-.640625-.496093-.855469-.105469.078125-.21875.148437-.332031.21875l.28125.195313c.308593.21875.492187.546874.546874.898437 1.664063-1.042969 2.765626-2.894531 2.765626-5.011719 0-.078125 0-.15625-.003907-.230468zm-12.269531.003906c-.003906.074218-.003906.148437-.003906.226562 0 3.121094 2.394531 5.664063 5.457031 5.894532v-.457032c-2.988281-.222656-5.339844-2.648437-5.453125-5.664062zm8.574219 5.226562c-.03125.054688-.074219.105469-.132813.144532l-2.273437 1.59375c-.300781.210937-.714844-.003907-.714844-.371094v.453125c0 .367187.414063.582031.714844.371093l2.273437-1.589843c.203125-.140625.246094-.40625.132813-.601563zm0 0" fill-opacity=".235294"/><path d="m979.14774 295.118564c-7.558334 0-15.116667 2.404925-21.987879 7.214773l-199.952276 140.172729c-23.018561 15.803788-23.018561 49.472728 0 65.276516l199.952276 140.172729c6.527651 4.466288 14.429545 7.214773 22.331439 7.214773 22.33144 0 40.540152-17.865152 40.540152-40.196591v-77.988259c202.70076 19.926515 360.05152 189.989018 360.05152 398.186747 0 147.043942-78.67538 275.192049-196.173109 344.591293l24.736364 17.521591c27.141289 18.895833 43.288637 48.098485 48.098486 78.67538 146.35682-91.730683 243.240912-254.578413 243.240912-440.788264 0-274.848488-210.602654-498.162885-479.954173-518.432961v-81.767425c0-23.018561-18.895833-39.50947-39.165909-39.853031-.687122 0-1.030682 0-1.717803 0zm-315.732201 199.265154c-146.35682 91.730683-243.240912 254.578413-243.240912 440.788263 0 274.504928 210.602654 498.162886 479.954172 518.432962v81.423864c0 32.294698 36.417425 51.534092 62.871592 32.981819l199.952275-140.172729c22.675-15.803788 22.675-49.472728 0-65.620077l-199.952275-139.829168c-6.527652-4.809849-14.429546-7.214773-22.675-7.214773-21.987879-.343561-40.196592 17.865152-40.196592 39.853031v77.988258c-202.70076-19.926515-360.051519-189.645457-360.051519-397.843187 0-147.043941 78.675379-275.192048 196.173108-344.591292l-24.736364-17.521591c-27.484849-19.239394-43.288637-48.098485-48.098485-78.67538zm0 0" fill="none" stroke="#212121" stroke-linecap="round" stroke-width="11.338583" transform="scale(.0113699)"/></svg>

<?xml version="1.0" encoding="UTF-8"?>
<svg xmlns="http://www.w3.org/2000/svg" xmlns:xlink="http://www.w3.org/1999/xlink" width="22pt" height="22pt" viewBox="0 0 22 22" version="1.1">
<defs>
<radialGradient id="radial0" gradientUnits="userSpaceOnUse" cx="450.90894" cy="189.57936" fx="450.90894" fy="189.57936" r="21.166656" gradientTransform="matrix(0.000000119742,-0.0537161,-0.0966889,-0.0000000698078,30.609667,43.721791)">
<stop offset="0" style="stop-color:rgb(0%,0%,0%);stop-opacity:0.313725;"/>
<stop offset="0.222222" style="stop-color:rgb(0%,0%,0%);stop-opacity:0.27451;"/>
<stop offset="1" style="stop-color:rgb(0%,0%,0%);stop-opacity:0;"/>
</radialGradient>
<radialGradient id="radial1" gradientUnits="userSpaceOnUse" cx="450.90894" cy="189.57936" fx="450.90894" fy="189.57936" r="21.166656" gradientTransform="matrix(-0.000000119742,0.0537161,0.0966889,0.0000000698078,-8.779458,-5.175143)">
<stop offset="0" style="stop-color:rgb(0%,0%,0%);stop-opacity:0.313725;"/>
<stop offset="0.222222" style="stop-color:rgb(0%,0%,0%);stop-opacity:0.27451;"/>
<stop offset="1" style="stop-color:rgb(0%,0%,0%);stop-opacity:0;"/>
</radialGradient>
<radialGradient id="radial2" gradientUnits="userSpaceOnUse" cx="450.90894" cy="189.57936" fx="450.90894" fy="189.57936" r="21.166656" gradientTransform="matrix(-0.000000119742,-0.0537161,0.0966889,-0.0000000698078,-8.779458,43.721791)">
<stop offset="0" style="stop-color:rgb(0%,0%,0%);stop-opacity:0.313725;"/>
<stop offset="0.222222" style="stop-color:rgb(0%,0%,0%);stop-opacity:0.27451;"/>
<stop offset="1" style="stop-color:rgb(0%,0%,0%);stop-opacity:0;"/>
</radialGradient>
<radialGradient id="radial3" gradientUnits="userSpaceOnUse" cx="450.90894" cy="189.57936" fx="450.90894" fy="189.57936" r="21.166656" gradientTransform="matrix(0.000000119742,0.0537161,-0.0966889,0.0000000698078,30.609666,-5.175144)">
<stop offset="0" style="stop-color:rgb(0%,0%,0%);stop-opacity:0.313725;"/>
<stop offset="0.222222" style="stop-color:rgb(0%,0%,0%);stop-opacity:0.27451;"/>
<stop offset="1" style="stop-color:rgb(0%,0%,0%);stop-opacity:0;"/>
</radialGradient>
<linearGradient id="linear0" gradientUnits="userSpaceOnUse" x1="255.32306" y1="233.5" x2="255.32304" y2="254.66666" gradientTransform="matrix(0.00918504,0,0,0.0429729,8.569953,9.239164)">
<stop offset="0" style="stop-color:rgb(0%,0%,0%);stop-opacity:0.27451;"/>
<stop offset="1" style="stop-color:rgb(0%,0%,0%);stop-opacity:0;"/>
</linearGradient>
<linearGradient id="linear1" gradientUnits="userSpaceOnUse" x1="254" y1="-168.66667" x2="254" y2="233.5" >
<stop offset="0" style="stop-color:rgb(68.235294%,83.529412%,50.588235%);stop-opacity:1;"/>
<stop offset="1" style="stop-color:rgb(61.176471%,80%,39.607843%);stop-opacity:1;"/>
</linearGradient>
<linearGradient id="linear2" gradientUnits="userSpaceOnUse" x1="960" y1="1695.1182" x2="960" y2="175.11812" gradientTransform="matrix(0.0113699,0,0,0.0113699,0,0)">
<stop offset="0" style="stop-color:rgb(25.882353%,25.882353%,25.882353%);stop-opacity:1;"/>
<stop offset="1" style="stop-color:rgb(38.039216%,38.039216%,38.039216%);stop-opacity:1;"/>
</linearGradient>
</defs>
<g id="surface1">
<path style=" stroke:none;fill-rule:nonzero;fill:url(#radial0);" d="M 12.507812 19.273438 L 14.324219 19.273438 L 14.324219 18.363281 L 12.507812 18.363281 Z M 12.507812 19.273438 "/>
<path style=" stroke:none;fill-rule:nonzero;fill:url(#radial1);" d="M 9.324219 19.273438 L 7.503906 19.273438 L 7.503906 20.183594 L 9.324219 20.183594 Z M 9.324219 19.273438 "/>
<path style=" stroke:none;fill-rule:nonzero;fill:url(#radial2);" d="M 9.324219 19.273438 L 7.503906 19.273438 L 7.503906 18.363281 L 9.324219 18.363281 Z M 9.324219 19.273438 "/>
<path style=" stroke:none;fill-rule:nonzero;fill:url(#radial3);" d="M 12.507812 19.273438 L 14.324219 19.273438 L 14.324219 20.183594 L 12.507812 20.183594 Z M 12.507812 19.273438 "/>
<path style=" stroke:none;fill-rule:nonzero;fill:url(#linear0);" d="M 9.324219 19.046875 L 12.507812 19.046875 L 12.507812 20.183594 L 9.324219 20.183594 Z M 9.324219 19.046875 "/>
<path style="fill-rule:nonzero;fill:url(#linear1);stroke-width:3;stroke-linecap:round;stroke-linejoin:miter;stroke:rgb(20%,20%,20%);stroke-opacity:1;stroke-miterlimit:4;" d="M 253.975747 -168.640791 C 365.056048 -168.640791 455.047454 -78.649384 455.047454 32.430917 C 455.047454 143.511218 365.056048 233.502625 253.975747 233.502625 C 142.986345 233.502625 52.904039 143.511218 52.904039 32.430917 C 52.904039 -78.649384 142.986345 -168.640791 253.975747 -168.640791 Z M 253.975747 -168.640791 " transform="matrix(0.0429729,0,0,0.0429729,0,9.239163)"/>
<path style=" stroke:none;fill-rule:nonzero;fill:rgb(0%,0%,0%);fill-opacity:0.196078;" d="M 10.914062 19.273438 C 6.128906 19.273438 2.273438 15.417969 2.273438 10.632812 C 2.273438 10.605469 2.273438 10.574219 2.273438 10.546875 C 2.320312 15.296875 6.15625 19.105469 10.914062 19.105469 C 15.675781 19.105469 19.511719 15.296875 19.554688 10.546875 C 19.554688 10.574219 19.554688 10.605469 19.554688 10.632812 C 19.554688 15.417969 15.703125 19.273438 10.914062 19.273438 Z M 10.914062 19.273438 "/>
<path style=" stroke:none;fill-rule:nonzero;fill:rgb(100%,100%,100%);fill-opacity:0.392157;" d="M 10.914062 1.992188 C 6.128906 1.992188 2.273438 5.84375 2.273438 10.632812 C 2.273438 10.660156 2.273438 10.6875 2.273438 10.71875 C 2.320312 5.96875 6.15625 2.160156 10.914062 2.160156 C 15.675781 2.160156 19.511719 5.96875 19.554688 10.71875 C 19.554688 10.6875 19.554688 10.660156 19.554688 10.632812 C 19.554688 5.84375 15.703125 1.992188 10.914062 1.992188 Z M 10.914062 1.992188 "/>
<path style=" stroke:none;fill-rule:nonzero;fill:rgb(12.941176%,12.941176%,12.941176%);fill-opacity:1;" d="M 10.914062 1.925781 C 6.09375 1.925781 2.210938 5.808594 2.210938 10.632812 C 2.210938 15.453125 6.09375 19.335938 10.914062 19.335938 C 15.738281 19.335938 19.621094 15.453125 19.621094 10.632812 C 19.621094 5.808594 15.738281 1.925781 10.914062 1.925781 Z M 10.914062 2.054688 C 15.667969 2.054688 19.492188 5.878906 19.492188 10.632812 C 19.492188 15.382812 15.667969 19.207031 10.914062 19.207031 C 6.164062 19.207031 2.339844 15.382812 2.339844 10.632812 C 2.339844 5.878906 6.164062 2.054688 10.914062 2.054688 Z M 10.914062 2.054688 "/>
<path style=" stroke:none;fill-rule:nonzero;fill:url(#linear2);" d="M 11.132812 3.355469 C 11.046875 3.355469 10.960938 3.382812 10.882812 3.4375 L 8.609375 5.03125 C 8.347656 5.210938 8.347656 5.59375 8.609375 5.773438 L 10.882812 7.367188 C 10.957031 7.417969 11.046875 7.449219 11.136719 7.449219 C 11.390625 7.449219 11.597656 7.246094 11.597656 6.992188 L 11.597656 6.105469 C 13.902344 6.332031 15.691406 8.265625 15.691406 10.632812 C 15.691406 12.304688 14.796875 13.761719 13.460938 14.550781 L 13.742188 14.75 C 14.050781 14.964844 14.234375 15.296875 14.289062 15.644531 C 15.953125 14.601562 17.054688 12.75 17.054688 10.632812 C 17.054688 7.507812 14.660156 4.96875 11.597656 4.738281 L 11.597656 3.808594 C 11.597656 3.546875 11.382812 3.359375 11.152344 3.355469 C 11.144531 3.355469 11.140625 3.355469 11.132812 3.355469 Z M 7.542969 5.621094 C 5.878906 6.664062 4.777344 8.515625 4.777344 10.632812 C 4.777344 13.753906 7.171875 16.296875 10.234375 16.527344 L 10.234375 17.453125 C 10.234375 17.820312 10.648438 18.039062 10.949219 17.828125 L 13.222656 16.234375 C 13.480469 16.054688 13.480469 15.671875 13.222656 15.488281 L 10.949219 13.898438 C 10.875 13.84375 10.785156 13.816406 10.691406 13.816406 C 10.441406 13.8125 10.234375 14.019531 10.234375 14.269531 L 10.234375 15.15625 C 7.929688 14.929688 6.140625 13 6.140625 10.632812 C 6.140625 8.960938 7.035156 7.503906 8.371094 6.714844 L 8.089844 6.515625 C 7.777344 6.296875 7.597656 5.96875 7.542969 5.621094 Z M 7.542969 5.621094 "/>
<path style=" stroke:none;fill-rule:nonzero;fill:rgb(100%,100%,100%);fill-opacity:0.392157;" d="M 11.132812 3.355469 C 11.046875 3.355469 10.960938 3.382812 10.882812 3.4375 L 8.609375 5.03125 C 8.445312 5.144531 8.382812 5.339844 8.429688 5.515625 C 8.453125 5.414062 8.515625 5.324219 8.609375 5.257812 L 10.882812 3.664062 C 10.960938 3.609375 11.046875 3.585938 11.132812 3.582031 C 11.140625 3.582031 11.144531 3.582031 11.152344 3.582031 C 11.382812 3.589844 11.597656 3.773438 11.597656 4.039062 L 11.597656 3.808594 C 11.597656 3.546875 11.382812 3.359375 11.152344 3.355469 C 11.144531 3.355469 11.140625 3.355469 11.132812 3.355469 Z M 11.597656 4.738281 L 11.597656 4.964844 C 14.621094 5.191406 16.996094 7.675781 17.054688 10.742188 C 17.054688 10.707031 17.054688 10.667969 17.054688 10.632812 C 17.054688 7.507812 14.660156 4.96875 11.597656 4.738281 Z M 7.542969 5.621094 C 5.878906 6.664062 4.777344 8.515625 4.777344 10.632812 C 4.777344 10.667969 4.777344 10.707031 4.777344 10.742188 C 4.816406 8.675781 5.910156 6.871094 7.542969 5.847656 C 7.597656 6.195312 7.777344 6.527344 8.089844 6.742188 L 8.199219 6.820312 C 8.253906 6.785156 8.3125 6.75 8.371094 6.714844 L 8.089844 6.515625 C 7.777344 6.296875 7.597656 5.96875 7.542969 5.621094 Z M 15.6875 10.792969 C 15.632812 12.398438 14.753906 13.785156 13.460938 14.550781 L 13.632812 14.671875 C 14.832031 13.886719 15.636719 12.554688 15.6875 11.023438 C 15.6875 11.039062 15.6875 11.054688 15.6875 11.070312 C 15.691406 11.03125 15.691406 10.996094 15.691406 10.957031 C 15.691406 10.902344 15.691406 10.847656 15.6875 10.792969 Z M 6.144531 10.792969 C 6.140625 10.847656 6.140625 10.902344 6.140625 10.957031 C 6.140625 10.996094 6.140625 11.035156 6.140625 11.074219 C 6.140625 11.054688 6.140625 11.039062 6.144531 11.023438 C 6.222656 13.3125 7.980469 15.164062 10.234375 15.386719 L 10.234375 15.15625 C 7.980469 14.9375 6.222656 13.085938 6.144531 10.792969 Z M 10.691406 13.816406 C 10.441406 13.8125 10.234375 14.019531 10.234375 14.269531 L 10.234375 14.5 C 10.234375 14.246094 10.441406 14.042969 10.691406 14.042969 C 10.785156 14.046875 10.875 14.074219 10.949219 14.125 L 13.222656 15.71875 C 13.316406 15.785156 13.375 15.875 13.402344 15.976562 C 13.445312 15.800781 13.386719 15.605469 13.222656 15.488281 L 10.949219 13.898438 C 10.875 13.84375 10.785156 13.816406 10.691406 13.816406 Z M 10.691406 13.816406 "/>
<path style=" stroke:none;fill-rule:nonzero;fill:rgb(0%,0%,0%);fill-opacity:0.235294;" d="M 8.476562 5.605469 C 8.363281 5.800781 8.40625 6.066406 8.609375 6.207031 L 10.882812 7.796875 C 10.957031 7.851562 11.046875 7.878906 11.136719 7.878906 C 11.390625 7.882812 11.597656 7.679688 11.597656 7.425781 L 11.597656 6.972656 C 11.597656 7.222656 11.390625 7.429688 11.136719 7.425781 C 11.046875 7.425781 10.957031 7.394531 10.882812 7.34375 L 8.609375 5.753906 C 8.550781 5.710938 8.507812 5.664062 8.476562 5.605469 Z M 11.597656 6.085938 L 11.597656 6.539062 C 13.828125 6.757812 15.574219 8.574219 15.683594 10.835938 C 15.6875 10.761719 15.691406 10.6875 15.691406 10.609375 C 15.691406 8.242188 13.902344 6.3125 11.597656 6.085938 Z M 8.035156 6.910156 C 6.886719 7.734375 6.140625 9.082031 6.140625 10.609375 C 6.140625 10.6875 6.140625 10.761719 6.144531 10.835938 C 6.222656 9.261719 7.09375 7.898438 8.371094 7.144531 L 8.089844 6.949219 C 8.070312 6.9375 8.054688 6.921875 8.035156 6.910156 Z M 17.050781 10.835938 C 16.976562 12.859375 15.894531 14.617188 14.289062 15.621094 C 14.238281 15.292969 14.074219 14.980469 13.792969 14.765625 C 13.6875 14.84375 13.574219 14.914062 13.460938 14.984375 L 13.742188 15.179688 C 14.050781 15.398438 14.234375 15.726562 14.289062 16.078125 C 15.953125 15.035156 17.054688 13.183594 17.054688 11.066406 C 17.054688 10.988281 17.054688 10.910156 17.050781 10.835938 Z M 4.78125 10.839844 C 4.777344 10.914062 4.777344 10.988281 4.777344 11.066406 C 4.777344 14.1875 7.171875 16.730469 10.234375 16.960938 L 10.234375 16.503906 C 7.246094 16.28125 4.894531 13.855469 4.78125 10.839844 Z M 13.355469 16.066406 C 13.324219 16.121094 13.28125 16.171875 13.222656 16.210938 L 10.949219 17.804688 C 10.648438 18.015625 10.234375 17.800781 10.234375 17.433594 L 10.234375 17.886719 C 10.234375 18.253906 10.648438 18.46875 10.949219 18.257812 L 13.222656 16.667969 C 13.425781 16.527344 13.46875 16.261719 13.355469 16.066406 Z M 13.355469 16.066406 "/>
<path style="fill:none;stroke-width:11.338583;stroke-linecap:round;stroke-linejoin:miter;stroke:rgb(12.941176%,12.941176%,12.941176%);stroke-opacity:1;stroke-miterlimit:4;" d="M 979.14774 295.118564 C 971.589406 295.118564 964.031073 297.523489 957.159861 302.333337 L 757.207585 442.506066 C 734.189024 458.309854 734.189024 491.978794 757.207585 507.782582 L 957.159861 647.955311 C 963.687512 652.421599 971.589406 655.170084 979.4913 655.170084 C 1001.82274 655.170084 1020.031452 637.304932 1020.031452 614.973493 L 1020.031452 536.985234 C 1222.732212 556.911749 1380.082972 726.974252 1380.082972 935.171981 C 1380.082972 1082.215923 1301.407592 1210.36403 1183.909863 1279.763274 L 1208.646227 1297.284865 C 1235.787516 1316.180698 1251.934864 1345.38335 1256.744713 1375.960245 C 1403.101533 1284.229562 1499.985625 1121.381832 1499.985625 935.171981 C 1499.985625 660.323493 1289.382971 437.009096 1020.031452 416.73902 L 1020.031452 334.971595 C 1020.031452 311.953034 1001.135619 295.462125 980.865543 295.118564 C 980.178421 295.118564 979.834861 295.118564 979.14774 295.118564 Z M 663.415539 494.383718 C 517.058719 586.114401 420.174627 748.962131 420.174627 935.171981 C 420.174627 1209.676909 630.777281 1433.334867 900.128799 1453.604943 L 900.128799 1535.028807 C 900.128799 1567.323505 936.546224 1586.562899 963.000391 1568.010626 L 1162.952666 1427.837897 C 1185.627666 1412.034109 1185.627666 1378.365169 1162.952666 1362.21782 L 963.000391 1222.388652 C 956.472739 1217.578803 948.570845 1215.173879 940.325391 1215.173879 C 918.337512 1214.830318 900.128799 1233.039031 900.128799 1255.02691 L 900.128799 1333.015168 C 697.428039 1313.088653 540.07728 1143.369711 540.07728 935.171981 C 540.07728 788.12804 618.752659 659.979933 736.250388 590.580689 L 711.514024 573.059098 C 684.029175 553.819704 668.225387 524.960613 663.415539 494.383718 Z M 663.415539 494.383718 " transform="matrix(0.0113699,0,0,0.0113699,0,0)"/>
</g>
</svg>
